X: 1
T: Flowers of Edinburgh, The
C: Trad
R: Reel
L: 1/8
M: 4/4
K: G
Z: ABC transcription by Verge Roller
r: 32
|: GE | "G" D2 DE G2 GA | "G" BGBd "Bm" cBAG | "D" FGEF DEFG | "D" AFdF "C" E2 EF |
"G" D2 DE G2 GA | "G" BGBd "C" efge | "G" dcBA "D" GFGA | "G" B2 G2 G2 :|
|: Bd | "G" g2 g2 gbag | "Bm" f2 f2 fagf | "Em" edef gfed | "Bm" B2 e2 "C" e2 ge |
"G" dBGB d2 d2 | "C" edef g2 fe | "G" dcBA "D" GFGA | "G" B2 G2 G2 :|
